www/assets/icons/real_estate_agent.svg

<svg xmlns="http://www.w3.org/2000/svg" width="24" height="24" viewBox="0 0 24 24" fill='currentColor'><path d="M1.5 22.25h4v-11h-4zm19-5h-7l-2.09-.73.33-.94 1.76.67h2.82c.65 0 1.18-.53 1.18-1.18 0-.49-.31-.93-.77-1.11l-7.26-2.71H7.5v9.02l7 1.98 8-3c-.01-1.1-.89-2-2-2m-6-15.5-7 5v2.5h2l8.14 3.26c1.12.45 1.86 1.53 1.86 2.74h2v-8.5zm-.5 8.5h-1v-1h1zm0-2h-1v-1h1zm2 2h-1v-1h1zm0-2h-1v-1h1z"/></svg>

<svg width="24" height="24" viewBox="0 0 24 24" xmlns="http://www.w3.org/2000/svg" fill='currentColor'><path d="M1.5 22.25H5.5V11.25H1.5V22.25ZM20.5 17.25H13.5L11.41 16.52L11.74 15.58L13.5 16.25H16.32C16.97 16.25 17.5 15.72 17.5 15.07C17.5 14.58 17.19 14.14 16.73 13.96L9.47 11.25H7.5V20.27L14.5 22.25L22.5 19.25C22.49 18.15 21.61 17.25 20.5 17.25ZM14.5 1.75L7.5 6.75V9.25H9.5L17.64 12.51C18.76 12.96 19.5 14.04 19.5 15.25H21.5V6.75L14.5 1.75ZM14 10.25H13V9.25H14V10.25ZM14 8.25H13V7.25H14V8.25ZM16 10.25H15V9.25H16V10.25ZM16 8.25H15V7.25H16V8.25Z"/></svg>
